; generated by Slic3r 1.3.0 on 2020-12-21 at 18:15:28

; external perimeters extrusion width = 0.44mm (2.86mm^3/s)
; perimeters extrusion width = 0.56mm (4.14mm^3/s)
; infill extrusion width = 0.50mm (3.66mm^3/s)
; solid infill extrusion width = 0.56mm (3.10mm^3/s)
; top infill extrusion width = 0.45mm (2.44mm^3/s)

M107
;D3D:START:START
T0
M104 S215 T0

G21
G90
M107
T0
G28
G29
M109 T0 S215 T0
G0 F3000
M107
T0
G92 E0
G0 X0 Y149 Z0.1 F3600
G1 Y49 E6.5 F1200
G0 Z1
G92 E0
; Filament gcode

G21 ; set units to millimeters
G90 ; use absolute coordinates
M82 ; use absolute distances for extrusion
G92 E0
G1 Z0.300 F6000.000
G1 E-2.00000 F1200.00000
G92 E0
G1 Z0.800 F6000.000
G1 X50.068 Y45.263 F6000.000
G1 Z0.300 F6000.000
G1 E2.00000 F1200.00000
G1 F1800
G1 X50.745 Y44.555 E2.04383
G1 X51.401 Y44.012 E2.08194
G1 X52.338 Y43.417 E2.13157
G1 X53.110 Y43.054 E2.16975
G1 X54.042 Y42.742 E2.21370
G1 X55.136 Y42.534 E2.26351
G1 X55.984 Y42.480 E2.30152
G1 X94.016 Y42.480 E4.00269
G1 X94.997 Y42.550 E4.04666
G1 X95.958 Y42.742 E4.09051
G1 X96.768 Y43.005 E4.12861
G1 X97.661 Y43.417 E4.17258
G1 X98.492 Y43.934 E4.21639
G1 X99.255 Y44.554 E4.26034
G1 X100.017 Y45.366 E4.31018
G1 X100.589 Y46.167 E4.35416
G1 X101.054 Y47.030 E4.39804
G1 X101.367 Y47.822 E4.43613
G1 X101.644 Y48.899 E4.48586
G1 X101.758 Y49.874 E4.52977
G1 X101.772 Y50.300 E4.54883
G1 X101.772 Y99.700 E6.75848
G1 X101.750 Y100.259 E6.78350
G1 X101.619 Y101.231 E6.82736
G1 X101.367 Y102.178 E6.87120
G1 X100.998 Y103.089 E6.91517
G1 X100.517 Y103.945 E6.95910
G1 X99.964 Y104.698 E7.00089
G1 X99.351 Y105.356 E7.04110
G1 X98.599 Y105.988 E7.08504
G1 X97.661 Y106.583 E7.13475
G1 X96.768 Y106.995 E7.17871
G1 X95.830 Y107.291 E7.22274
G1 X94.865 Y107.466 E7.26660
G1 X94.016 Y107.520 E7.30464
G1 X55.984 Y107.520 E9.00580
G1 X55.004 Y107.450 E9.04977
G1 X54.042 Y107.258 E9.09363
G1 X53.110 Y106.946 E9.13758
G1 X52.338 Y106.583 E9.17576
G1 X51.508 Y106.066 E9.21950
G1 X50.745 Y105.445 E9.26351
G1 X49.984 Y104.635 E9.31322
G1 X49.482 Y103.945 E9.35138
G1 X49.003 Y103.091 E9.39517
G1 X48.633 Y102.178 E9.43922
G1 X48.356 Y101.101 E9.48898
G1 X48.241 Y100.125 E9.53292
G1 X48.228 Y99.700 E9.55195
G1 X48.228 Y50.300 E11.76160
G1 X48.250 Y49.743 E11.78653
G1 X48.356 Y48.899 E11.82458
G1 X48.633 Y47.822 E11.87434
G1 X48.947 Y47.030 E11.91243
G1 X49.411 Y46.167 E11.95628
G1 X50.030 Y45.310 E12.00355
G1 X50.365 Y45.509 F6000.000
G1 F1800
G1 X51.009 Y44.836 E12.04521
G1 X51.628 Y44.324 E12.08116
G1 X52.408 Y43.819 E12.12274
G1 X53.252 Y43.412 E12.16464
G1 X54.266 Y43.083 E12.21231
G1 X55.100 Y42.927 E12.25026
G1 X55.984 Y42.866 E12.28991
G1 X94.016 Y42.866 E13.99108
G1 X94.948 Y42.933 E14.03288
G1 X95.862 Y43.116 E14.07457
G1 X96.626 Y43.364 E14.11050
G1 X97.475 Y43.754 E14.15230
G1 X98.266 Y44.246 E14.19395
G1 X98.991 Y44.835 E14.23573
G1 X99.720 Y45.612 E14.28340
G1 X100.263 Y46.373 E14.32522
G1 X100.705 Y47.195 E14.36694
G1 X101.000 Y47.941 E14.40286
G1 X101.265 Y48.971 E14.45042
G1 X101.365 Y49.765 E14.48622
G1 X101.386 Y50.300 E14.51015
G1 X101.386 Y99.700 E16.71981
G1 X101.365 Y100.234 E16.74373
G1 X101.240 Y101.158 E16.78543
G1 X101.000 Y102.059 E16.82711
G1 X100.649 Y102.925 E16.86891
G1 X100.192 Y103.739 E16.91068
G1 X99.667 Y104.452 E16.95030
G1 X99.087 Y105.074 E16.98834
G1 X98.372 Y105.676 E17.03012
G1 X97.475 Y106.246 E17.07766
G1 X96.626 Y106.636 E17.11946
G1 X95.734 Y106.917 E17.16131
G1 X94.816 Y107.084 E17.20302
G1 X94.016 Y107.134 E17.23889
G1 X55.984 Y107.134 E18.94005
G1 X55.052 Y107.067 E18.98185
G1 X54.138 Y106.884 E19.02355
G1 X53.252 Y106.588 E19.06533
G1 X52.524 Y106.245 E19.10133
G1 X51.734 Y105.754 E19.14292
G1 X51.009 Y105.164 E19.18475
G1 X50.281 Y104.389 E19.23231
G1 X49.808 Y103.738 E19.26829
G1 X49.352 Y102.927 E19.30992
G1 X49.000 Y102.059 E19.35180
G1 X48.735 Y101.029 E19.39940
G1 X48.635 Y100.233 E19.43529
G1 X48.614 Y99.700 E19.45913
G1 X48.614 Y50.300 E21.66878
G1 X48.635 Y49.767 E21.69262
G1 X48.735 Y48.971 E21.72851
G1 X49.000 Y47.941 E21.77610
G1 X49.295 Y47.194 E21.81203
G1 X49.737 Y46.373 E21.85371
G1 X50.327 Y45.556 E21.89881
G1 E19.89881 F1200.00000
G92 E0
G1 Z0.800 F6000.000
G1 X93.595 Y90.053 F6000.000
G1 Z0.300 F6000.000
G1 E2.00000 F1200.00000
G1 F1800
G1 X92.724 Y90.053 E2.03895
G1 X92.724 Y90.916 E2.07753
G1 X91.560 Y90.916 E2.12962
G1 X91.660 Y91.486 E2.15550
G1 X91.861 Y91.336 E2.16671
G1 X92.096 Y91.223 E2.17837
G1 X92.603 Y91.150 E2.20130
G1 X93.198 Y91.281 E2.22852
G1 X93.679 Y91.708 E2.25732
G1 X93.934 Y92.290 E2.28574
G1 X94.009 Y92.983 E2.31691
G1 X93.755 Y94.139 E2.36984
G1 X92.249 Y95.206 E2.45240
G1 X92.077 Y94.347 E2.49158
G1 X91.735 Y94.540 E2.50914
G1 X91.477 Y94.619 E2.52123
G1 X91.170 Y94.646 E2.53500
G1 X90.599 Y94.523 E2.56113
G1 X90.136 Y94.117 E2.58866
G1 X89.894 Y93.564 E2.61568
G1 X89.828 Y92.948 E2.64341
G1 X89.877 Y92.380 E2.66889
G1 X90.057 Y91.873 E2.69295
G1 X90.426 Y91.472 E2.71733
G1 X91.235 Y91.097 E2.75719
G1 X91.206 Y90.967 E2.76315
G1 X91.206 Y90.053 E2.80403
G1 X90.335 Y90.053 E2.84298
G1 X90.335 Y88.533 E2.91098
G1 X91.206 Y88.533 E2.94993
G1 X91.206 Y87.670 E2.98851
G1 X92.724 Y87.670 E3.05642
G1 X92.724 Y88.533 E3.09500
G1 X93.595 Y88.533 E3.13395
G1 X93.595 Y89.993 E3.19927
G1 X93.017 Y91.636 F6000.000
G1 F1800
G1 X93.360 Y91.940 E3.21979
G1 X93.557 Y92.391 E3.24177
G1 X93.619 Y92.962 E3.26747
G1 X93.410 Y93.910 E3.31091
G1 X92.510 Y94.548 E3.36024
G1 X92.332 Y93.657 E3.40090
G1 X92.675 Y93.501 E3.41776
G1 X92.770 Y93.394 E3.42416
G1 X92.837 Y93.212 E3.43283
G1 X92.862 Y92.936 E3.44523
G1 X92.835 Y92.655 E3.45785
G1 X92.767 Y92.482 E3.46613
G1 X92.688 Y92.406 E3.47105
G1 X92.568 Y92.378 E3.47658
G1 X92.482 Y92.401 E3.48057
G1 X92.412 Y92.492 E3.48569
G1 X92.328 Y92.734 E3.49716
G1 X92.169 Y93.389 E3.52730
G1 X92.085 Y93.630 E3.53873
G1 X91.991 Y93.818 E3.54813
G1 X91.877 Y93.972 E3.55668
G1 X91.741 Y94.094 E3.56484
G1 X91.583 Y94.184 E3.57301
G1 X91.403 Y94.238 E3.58140
G1 X91.194 Y94.257 E3.59078
G1 X90.778 Y94.167 E3.60983
G1 X90.455 Y93.884 E3.62903
G1 X90.271 Y93.464 E3.64955
G1 X90.215 Y92.944 E3.67295
G1 X90.257 Y92.462 E3.69456
G1 X90.394 Y92.076 E3.71289
G1 X90.658 Y91.790 E3.73031
G1 X91.272 Y91.505 E3.76056
G1 X91.419 Y92.346 E3.79874
G1 X91.108 Y92.491 E3.81411
G1 X91.034 Y92.573 E3.81906
G1 X90.981 Y92.716 E3.82585
G1 X90.960 Y92.945 E3.83614
G1 X90.984 Y93.197 E3.84744
G1 X91.040 Y93.342 E3.85443
G1 X91.101 Y93.401 E3.85819
G1 X91.238 Y93.432 E3.86449
G1 X91.347 Y93.286 E3.87263
G1 X91.404 Y93.118 E3.88057
G1 X91.589 Y92.367 E3.91517
G1 X91.745 Y91.997 E3.93312
G1 X91.928 Y91.767 E3.94626
G1 X92.061 Y91.668 E3.95372
G1 X92.216 Y91.593 E3.96141
G1 X92.476 Y91.546 E3.97320
G1 X92.576 Y91.539 E3.97768
G1 X92.958 Y91.623 E3.99520
G1 X93.366 Y91.441 F6000.000
G1 X92.339 Y90.530 F6000.000
G1 F1800
G1 X91.592 Y90.530 E4.02862
G1 X91.592 Y89.668 E4.06720
G1 X90.721 Y89.668 E4.10615
G1 X90.721 Y88.919 E4.13965
G1 X91.592 Y88.919 E4.17860
G1 X91.592 Y88.056 E4.21718
G1 X92.339 Y88.056 E4.25059
G1 X92.339 Y88.919 E4.28918
G1 X93.209 Y88.919 E4.32812
G1 X93.209 Y89.668 E4.36163
G1 X92.339 Y89.668 E4.40057
G1 X92.339 Y90.470 E4.43647
G1 X92.235 Y90.916 F6000.000
G1 E2.43647 F1200.00000
G92 E0
G1 Z0.800 F6000.000
G1 X93.017 Y87.427 F6000.000
G1 Z0.300 F6000.000
G1 E2.00000 F1200.00000
G1 F1800
G1 X91.471 Y87.427 E2.06919
G1 X91.471 Y85.189 E2.16931
G1 X93.017 Y85.189 E2.23849
G1 X93.017 Y87.367 E2.33593
G1 X92.632 Y87.042 F6000.000
G1 F1800
G1 X91.856 Y87.042 E2.37062
G1 X91.856 Y85.575 E2.43625
G1 X92.632 Y85.575 E2.47094
G1 X92.632 Y86.982 E2.53388
G1 X92.696 Y87.437 F6000.000
G1 X93.403 Y87.813 F6000.000
G1 F1800
G1 X93.403 Y84.803 E2.66850
G1 X91.085 Y84.803 E2.77218
G1 X91.085 Y87.285 E2.88318
G1 X90.820 Y87.285 E2.89501
G1 X90.820 Y88.147 E2.93359
G1 X89.950 Y88.147 E2.97254
G1 X89.950 Y90.439 E3.07504
G1 X90.820 Y90.439 E3.11398
G1 X90.820 Y90.864 E3.13302
G1 X90.194 Y91.154 E3.16388
G1 X89.720 Y91.670 E3.19521
G1 X89.497 Y92.297 E3.22499
G1 X89.441 Y92.951 E3.25436
G1 X89.517 Y93.664 E3.28641
G1 X89.817 Y94.351 E3.31994
G1 X90.420 Y94.878 E3.35578
G1 X91.146 Y95.035 E3.38900
G1 X91.551 Y94.999 E3.40717
G1 X91.799 Y94.924 E3.41879
G1 X91.987 Y95.864 E3.46165
G1 X94.004 Y94.434 E3.57223
G1 X94.004 Y99.752 E3.81010
G1 X87.594 Y99.752 E4.09686
G1 X87.594 Y95.143 E4.30305
G1 X87.642 Y94.683 E4.32370
G1 X87.594 Y94.224 E4.34435
G1 X87.602 Y92.030 E4.44251
G1 X87.584 Y89.929 E4.53650
G1 X87.548 Y89.715 E4.54620
G1 X87.594 Y89.715 E4.54825
G1 X87.594 Y86.163 E4.70714
G1 X90.427 Y86.661 E4.83580
G1 X90.427 Y80.922 E5.09248
G1 X87.841 Y80.468 E5.20988
G1 X87.860 Y80.256 E5.21937
G1 X94.004 Y80.258 E5.49421
G1 X94.004 Y88.147 E5.84709
G1 X93.110 Y88.147 E5.88710
G1 X93.110 Y87.813 E5.90206
G1 X93.343 Y87.813 E5.91248
G1 E3.91248 F1200.00000
G92 E0
G1 Z0.800 F6000.000
G1 X93.110 Y90.439 F6000.000
G1 Z0.300 F6000.000
G1 E2.00000 F1200.00000
G1 F1800
G1 X94.004 Y90.439 E2.04001
G1 X94.004 Y91.481 E2.08662
G1 X93.379 Y90.926 E2.12404
G1 X93.110 Y90.867 E2.13634
G1 X93.110 Y90.499 E2.15279
G1 E0.15279 F1200.00000
G92 E0
G1 Z0.800 F6000.000
G1 X90.041 Y86.201 F6000.000
G1 Z0.300 F6000.000
G1 E2.00000 F1200.00000
G1 F1800
G1 X90.041 Y81.246 E2.22166
G1 X85.838 Y80.512 E2.41249
G1 X85.212 Y80.027 E2.44794
G1 X85.265 Y79.870 E2.45534
G1 X94.011 Y79.873 E2.84656
G1 X94.165 Y79.918 E2.85373
G1 X94.271 Y80.005 E2.85985
G1 X94.361 Y80.148 E2.86743
G1 X94.390 Y80.338 E2.87604
G1 X94.390 Y99.681 E3.74122
G1 X94.355 Y99.860 E3.74940
G1 X94.302 Y99.956 E3.75428
G1 X94.227 Y100.035 E3.75916
G1 X94.112 Y100.109 E3.76529
G1 X93.958 Y100.138 E3.77227
G1 X85.324 Y100.138 E4.15850
G1 X85.324 Y99.864 E4.17075
G1 X87.208 Y99.864 E4.25503
G1 X87.208 Y95.457 E4.45214
G1 X87.111 Y95.457 E4.45649
G1 X87.230 Y95.008 E4.47731
G1 X87.256 Y94.683 E4.49185
G1 X87.230 Y94.359 E4.50639
G1 X87.111 Y93.910 E4.52721
G1 X87.208 Y93.910 E4.53156
G1 X87.199 Y89.963 E4.70810
G1 X87.155 Y89.707 E4.71972
G1 X87.013 Y89.329 E4.73776
G1 X87.208 Y89.329 E4.74647
G1 X87.208 Y85.704 E4.90865
G1 X89.982 Y86.191 E5.03463
G1 E3.03463 F1200.00000
G92 E0
G1 Z0.800 F6000.000
G1 X83.697 Y80.138 F6000.000
G1 Z0.300 F6000.000
G1 E2.00000 F1200.00000
G1 F1800
G1 X83.370 Y80.081 E2.01484
G1 X83.389 Y79.870 E2.02432
G1 X83.697 Y79.870 E2.03811
G1 X83.697 Y80.078 E2.04744
G1 E0.04744 F1200.00000
G92 E0
G1 Z0.800 F6000.000
G1 X68.842 Y87.168 F6000.000
G1 Z0.300 F6000.000
G1 E2.00000 F1200.00000
G1 F1800
G1 X69.234 Y87.490 E2.02266
G1 X69.443 Y87.925 E2.04425
G1 X69.494 Y88.356 E2.06366
G1 X69.494 Y91.304 E2.19552
G1 X69.462 Y91.304 E2.19698
G1 X69.536 Y91.644 E2.21257
G1 X69.410 Y92.223 E2.23906
G1 X69.017 Y92.654 E2.26514
G1 X68.498 Y92.863 E2.29018
G1 X67.929 Y92.918 E2.31575
G1 X67.354 Y92.865 E2.34156
G1 X66.830 Y92.659 E2.36673
G1 X66.427 Y92.205 E2.39392
G1 X66.427 Y92.869 E2.42364
G1 X64.878 Y92.869 E2.49292
G1 X64.878 Y94.444 E2.56335
G1 X66.427 Y94.444 E2.63263
G1 X66.427 Y96.183 E2.71043
G1 X63.028 Y96.183 E2.86246
G1 X63.028 Y96.778 E2.88909
G1 X66.427 Y96.778 E3.04112
G1 X66.427 Y98.515 E3.11879
G1 X63.028 Y98.515 E3.27082
G1 X63.028 Y99.828 E3.32955
G1 X61.384 Y99.828 E3.40310
G1 X61.384 Y90.422 E3.82385
G1 X61.474 Y89.706 E3.85612
G1 X61.859 Y88.951 E3.89402
G1 X61.384 Y88.951 E3.91527
G1 X61.384 Y86.692 E4.01633
G1 X61.479 Y85.972 E4.04878
G1 X61.819 Y85.332 E4.08121
G1 X61.384 Y85.332 E4.10066
G1 X61.384 Y83.621 E4.17720
G1 X63.395 Y82.849 E4.27355
G1 X61.384 Y82.093 E4.36965
G1 X61.384 Y80.395 E4.44560
G1 X66.427 Y80.395 E4.67118
G1 X66.427 Y85.332 E4.89202
G1 X64.478 Y85.332 E4.97919
G1 X64.834 Y85.951 E5.01113
G1 X64.938 Y86.655 E5.04293
G1 X64.938 Y87.212 E5.06784
G1 X66.427 Y87.212 E5.13445
G1 X66.427 Y87.611 E5.15232
G1 X67.341 Y87.169 E5.19775
G1 X67.793 Y87.238 E5.21820
G1 X67.941 Y87.141 E5.22611
G1 X68.354 Y87.068 E5.24484
G1 X68.784 Y87.156 E5.26447
G1 E3.26447 F1200.00000
G92 E0
G1 Z0.800 F6000.000
G1 X66.041 Y87.597 F6000.000
G1 Z0.300 F6000.000
G1 E2.00000 F1200.00000
G1 F1800
G1 X66.041 Y89.681 E2.09322
G1 X64.454 Y90.674 E2.17694
G1 X64.454 Y91.515 E2.21457
G1 X66.041 Y91.515 E2.28555
G1 X66.041 Y92.483 E2.32885
G1 X64.492 Y92.483 E2.39813
G1 X64.492 Y94.829 E2.50306
G1 X66.041 Y94.829 E2.57234
G1 X66.041 Y95.797 E2.61564
G1 X62.642 Y95.797 E2.76767
G1 X62.642 Y97.164 E2.82880
G1 X66.041 Y97.164 E2.98082
G1 X66.041 Y98.129 E3.02401
G1 X62.642 Y98.129 E3.17603
G1 X62.642 Y99.442 E3.23476
G1 X61.769 Y99.442 E3.27381
G1 X61.769 Y90.446 E3.67623
G1 X61.848 Y89.821 E3.70441
G1 X62.106 Y89.315 E3.72979
G1 X62.534 Y88.989 E3.75388
G1 X63.084 Y88.883 E3.77891
G1 X63.556 Y88.958 E3.80027
G1 X63.953 Y89.186 E3.82075
G1 X64.241 Y89.546 E3.84138
G1 X64.291 Y89.696 E3.84843
G1 X65.756 Y88.730 E3.92692
G1 X65.706 Y88.565 E3.93462
G1 X61.769 Y88.565 E4.11072
G1 X61.769 Y86.717 E4.19339
G1 X61.852 Y86.092 E4.22160
G1 X62.121 Y85.585 E4.24727
G1 X62.567 Y85.260 E4.27198
G1 X63.132 Y85.157 E4.29764
G1 X63.113 Y84.947 E4.30710
G1 X61.769 Y84.947 E4.36721
G1 X61.769 Y83.886 E4.41464
G1 X64.480 Y82.846 E4.54453
G1 X61.769 Y81.826 E4.67408
G1 X61.769 Y80.780 E4.72084
G1 X66.041 Y80.780 E4.91192
G1 X66.041 Y81.697 E4.95292
G1 X64.410 Y81.697 E5.02588
G1 X64.375 Y81.887 E5.03450
G1 X66.041 Y82.518 E5.11419
G1 X66.041 Y83.192 E5.14431
G1 X64.338 Y83.846 E5.22592
G1 X64.373 Y84.035 E5.23453
G1 X66.041 Y84.035 E5.30913
G1 X66.041 Y84.947 E5.34989
G1 X63.176 Y84.947 E5.47806
G1 X63.157 Y85.157 E5.48752
G1 X63.721 Y85.260 E5.51316
G1 X64.177 Y85.583 E5.53818
G1 X64.463 Y86.080 E5.56384
G1 X64.552 Y86.683 E5.59110
G1 X64.552 Y87.597 E5.63200
G1 X65.981 Y87.597 E5.69593
G1 X66.435 Y87.670 F6000.000
G1 X66.894 Y87.814 F6000.000
G1 F1800
G1 X67.401 Y87.568 E5.72115
G1 X67.666 Y87.608 E5.73313
G1 X67.809 Y87.688 E5.74045
G1 X68.086 Y87.507 E5.75523
G1 X68.348 Y87.461 E5.76714
G1 X68.672 Y87.527 E5.78190
G1 X68.923 Y87.733 E5.79646
G1 X69.067 Y88.034 E5.81137
G1 X69.109 Y88.379 E5.82691
G1 X69.109 Y90.918 E5.94048
G1 X68.756 Y90.918 E5.95626
G1 X69.055 Y91.248 E5.97619
G1 X69.141 Y91.644 E5.99431
G1 X69.055 Y92.040 E6.01242
G1 X68.792 Y92.329 E6.02992
G1 X68.405 Y92.484 E6.04854
G1 X67.928 Y92.531 E6.06999
G1 X67.444 Y92.486 E6.09172
G1 X67.057 Y92.334 E6.11031
G1 X66.797 Y92.041 E6.12783
G1 X66.714 Y91.635 E6.14635
G1 X66.799 Y91.237 E6.16459
G1 X67.061 Y90.948 E6.18205
G1 X67.189 Y90.897 E6.18819
G1 X66.748 Y90.256 E6.22302
G1 X66.748 Y89.736 E6.24628
G1 X68.451 Y89.736 E6.32248
G1 X68.451 Y89.393 E6.33780
G1 X66.748 Y89.393 E6.41399
G1 X66.748 Y88.448 E6.45626
G1 X66.880 Y87.872 E6.48270
G1 X66.787 Y87.428 F6000.000
G1 E4.48270 F1200.00000
G92 E0
G1 Z0.800 F6000.000
G1 X60.998 Y89.337 F6000.000
G1 Z0.300 F6000.000
G1 E2.00000 F1200.00000
G1 F1800
G1 X61.229 Y89.337 E2.01035
G1 X61.100 Y89.590 E2.02310
G1 X60.998 Y90.397 E2.05947
G1 X60.998 Y99.752 E2.47792
G1 X56.010 Y99.752 E2.70103
G1 X55.996 Y99.637 E2.70622
G1 X55.996 Y98.628 E2.75138
G1 X60.447 Y98.628 E2.95048
G1 X60.447 Y93.782 E3.16725
G1 X60.408 Y93.782 E3.16898
G1 X60.494 Y93.008 E3.20379
G1 X60.415 Y92.358 E3.23306
G1 X60.159 Y91.747 E3.26274
G1 X59.730 Y91.232 E3.29269
G1 X58.343 Y90.327 E3.36676
G1 X58.025 Y90.965 E3.39863
G1 X57.806 Y90.305 E3.42973
G1 X56.286 Y91.216 E3.50901
G1 X55.996 Y91.564 E3.52927
G1 X55.996 Y88.928 E3.64720
G1 X60.447 Y88.928 E3.84631
G1 X60.447 Y84.082 E4.06307
G1 X60.408 Y84.082 E4.06481
G1 X60.494 Y83.308 E4.09961
G1 X60.415 Y82.658 E4.12889
G1 X60.159 Y82.047 E4.15856
G1 X59.730 Y81.532 E4.18852
G1 X58.343 Y80.627 E4.26259
G1 X58.025 Y81.265 E4.29447
G1 X57.806 Y80.605 E4.32557
G1 X56.286 Y81.516 E4.40485
G1 X55.996 Y81.864 E4.42511
G1 X55.996 Y80.363 E4.49228
G1 X56.010 Y80.248 E4.49746
G1 X60.998 Y80.249 E4.72057
G1 X60.998 Y82.360 E4.81498
G1 X62.309 Y82.853 E4.87763
G1 X60.998 Y83.356 E4.94045
G1 X60.998 Y85.718 E5.04609
G1 X61.123 Y85.718 E5.05169
G1 X60.998 Y86.666 E5.09448
G1 X60.998 Y89.277 E5.21123
G1 X60.061 Y88.542 F6000.000
G1 F1800
G1 X55.974 Y88.542 E5.39407
G1 X55.974 Y86.932 E5.46608
G1 X56.194 Y86.932 E5.47594
G1 X56.003 Y86.573 E5.49417
G1 X55.925 Y86.024 E5.51893
G1 X56.002 Y85.446 E5.54501
G1 X56.277 Y84.939 E5.57082
